X: 10341
Q: "Andantino"
M: 2/4
L: 1/16
K: C
[|\
c4 d3 e | c4 z4 | d4 e3 f | d4 z2 G2 |
(c3B) (d3c) | (e3d) (f3e) | (a2g2) (f2e2) | d6 zB | c4 (d3e) |
c4 z3c | d4 e4 | f4 z2a2 | g3 e f3 d | c4 d4 |
c4 z3G | c3 c d2 d2 | e2 c2 d2 zd | (dB) (AG) G3 d |
e3 c c3 ze | (fd) (cB) B3 f | g3 e e2 zd |
e3 e ^f3 f | g3 =f e2 ze | d3 d c3 c |
d3 d e3 e | f3 d HB4 | c4 d2 e2 | c4 z4 |
d4 e3 f | d4 z3G | (c3B) (d3c) | (e3d) (f3e) |
(a2g2) (f2e2) | d4 z3B | c4 (d3e) | c4 z3c | d4 e4 |
c4 d4 | g3 e f2 d2 | c4 Td4{cd} | c4 x4 & z2 c'2b2a2 | g6 efd | c4 d2cd | Hc8 |]



